X: 80
T:Amhran Dochais & C\'ait Ni Dhuibhir
T:Hope
C:Traditional
F:http://blackrosetheband.googlepages.com/ABCTUNES.ABC May 2009
N:First part by Osborn OhAimhirgin (early 20th century)
N:Second part is a traditional munster song. (18th Century)
N:Transcribe by R. S. Doiel.  Originally Heard on a Chieftain's CD
N:I think ether Chieftains' 7 or 8
R:Slow Air
M:4/4
L:1/8
Q:1/4=60
K:G
BA | "G" G3 E "D" DE FD | "G" G2 GF GA BG | "C" c2 BA GE D/E/F | "Em" E6 BA |
"G" G3 E "D"DE FD |"G" G2 GF GA Bc | d2 {d}e2 "D"B2 A2 |"G" G2 GF G2 Bd |
"C" e2 c2 A2 Bc | "G"d2 {d}e2 BA G2  | "C" c2 BA GE D/E/F | "Em" E6 BA |
"G"G3 E "D"DE FD | "G"G2 GF GA Bc | d2 {d}e2 "D"B2 AG | "G" G2 GF G4 :||
% Segue to the second tune in Dochas
"G" G4 "D"F2 D2 | "G" G2 GF GA BG | "C" c2 B2 c2  d2 | "D" ed d^c d2 B=c |
"G" dg gf "C"g2 fe | "D" de dc "Bm" B2  AG | "Am" AB cA "D" d2 BA | "G"G2 A2 B2 Bc |
"G" dg gf "C"g2 fe | "D" de dc "Em" B2  AG | "C" AB cA "D"d2 BA | "G" G2 F2 G4 ||

